!!!!SEGMENT: Ren1001a-Missa_Sine_nomine-Kyrie.krn
!!!id: Ren1001a
!!!AGN: Mass; Kyrie
!!!voices: 4
!!!COM: Renaldo
!!!OPR: Missa Sine nomine
!!!OTL: Kyrie
**kern	**kern	**kern	**kern
*part4	*part3	*part2	*part1
*staff4	*staff3	*staff2	*staff1
*I"Bassus	*I"Tenor	*I"Altus	*I"Superius
*I'B	*I'T	*I'A	*I'S
*clefF4	*clefGv2	*clefG2	*clefG2
*k[b-]	*k[b-]	*k[b-]	*k[b-]
*F:	*F:	*F:	*F:
*M2/1	*M2/1	*M2/1	*M2/1
*met(C|)	*met(C|)	*met(C|)	*met(C|)
!!section: Kyrie I
!!!OMD: Kyrie I
=1	=1	=1	=1
0r	0r	0d	0r
=2	=2	=2	=2
1r	0r	1c	0r
[1G	.	[1d	.
=3	=3	=3	=3
1G]	0r	2d]	0r
.	.	2e	.
1F	.	1f	.
=4	=4	=4	=4
2G	0d	4B-y	0r
.	.	4c	.
1B-y	.	4d	.
.	.	4e	.
.	.	2f	.
4A	.	[2g	.
4G	.	.	.
=5	=5	=5	=5
1A	1c	2g]	1r
.	.	2f#i	.
[1G	2.d	1g	[1g
.	4c	.	.
=6	=6	=6	=6
2G]	2B-y	0d	1g]
4F	4A	.	.
4E	4G	.	.
1D	1A	.	1f
=7	=7	=7	=7
2r	2G	1d	1g
1G	1B-y	.	.
.	.	2r	2e
2F	[2A	[2d	2f
=8	=8	=8	=8
1E	2A]	2d]	1g
.	2G	2c	.
2.D	2A	2d	2.f
.	2d	[2f	.
4E	.	.	4g
=9	=9	=9	=9
2F	2c	4f]	2a
.	.	4e	.
2G	2B-y	4d	1g
.	.	4c	.
1D	1A	1d	.
.	.	.	2f#i
=10	=10	=10	=10
1G	0G	0B-y	1g
2r	.	.	2r
2G	.	.	2b-y
=11	=11	=11	=11
2F	0d	2r	2a
1G	.	2.B-y	1b-y
.	.	4c	.
4F	.	4d	4a
4E	.	4e	4g
=12	=12	=12	=12
2D	1d	2f	2a
2G	.	2g	2b-y
2C	[1c	2e	2cc
2F	.	2f	2a
=13	=13	=13	=13
2E	1c]	2g	2g
2F	.	1f	2a
2D	2d	.	2f
2G	2B-y	2e	[2b-y
=14	=14	=14	=14
1F	1c	1f	2b-]
.	.	.	2a
1G	1B-y	2.d	1b-y
.	.	4e	.
=15	=15	=15	=15
2F	2r	1.f	1.a
2E	2c	.	.
2D	1d	.	.
[2G	.	[2d	[2g
=16	=16	=16	=16
2G]	2B-y	2d]	2g]
2C	2c	2e	4f
.	.	.	4e
1D	2A	2.d	1f
.	[2d	.	.
.	.	4c	.
=17	=17	=17	=17
2.G	4d]	4B-y	2d
.	4c	4A	.
.	4B-y	2G	2.g
4F	4A	.	.
4E	2G	1g	.
4D	.	.	4f
2C	2c	.	2e
=18	=18	=18	=18
2G	2B-y	1r	2d
2F	2A	.	2.f
1D	2.d	2r	.
.	.	.	4g
.	.	[2d	[2a
.	4c	.	.
=19	=19	=19	=19
1E-X	2B-y	2d]	4a]
.	.	.	4g
.	4A	2c	1g
.	4G	.	.
1D	1A	1d	.
.	.	.	2f#i
=20	=20	=20	=20
00G	00G	00d	00g
=21||	=21||	=21||	=21||
*M2/1	*M2/1	*M2/1	*M2/1
*met(C/2)	*met(C/2)	*met(C/2)	*met(C/2)
!!section: Christe
!!!OMD: Christe
0D	0A	0d	0f
=22	=22	=22	=22
1G	1B-y	2d	1g
.	.	2e	.
1F	1c	[1f	[1a
=23	=23	=23	=23
1D	1d	1f]	1a]
[1G	4d	2g	[1b-y
.	4c	.	.
.	4B-y	[2d	.
.	4A	.	.
=24	=24	=24	=24
2G]	2G	4d]	2b-]
.	.	4e	.
2F	2A	2f	2a
1G	2B-y	1d	1g
.	2G	.	.
=25	=25	=25	=25
2D	2A	2.d	2.f
2G	2B-y	.	.
.	.	4e	4g
2F	2c	1f	2a
2D	2d	.	2f
=26	=26	=26	=26
2G	2B-y	2r	2g
2F	2.c	2A	2.a
1E	.	2B-y	.
.	4B-y	.	4g
.	4A	2c	[2g
.	4G	.	.
=27	=27	=27	=27
1D	1A	1d	2g]
.	.	.	2f#i
[1G	[1G	[1d	[1g
=28	=28	=28	=28
1G]	1G]	1d]	1g]
[1G	[1d	[1g	[1b-y
=29	=29	=29	=29
2G]	2d]	2g]	2b-]
2G	2d	2g	2b-y
[1G	1d	1g	1b-y
=30	=30	=30	=30
1G]	1B-y	2d	1b-y
.	.	2e	.
1F	[1c	1f	1a
=31	=31	=31	=31
1.A	1c]	1r	1.cc
.	1A	[1c	.
2G	.	.	2b-y
=32	=32	=32	=32
1F	2r	2c]	1a
.	1A	1d	.
[1E	.	.	[1g
.	4G	4c#i	.
.	4F	4BnXi	.
=33	=33	=33	=33
1E]	1G	1c#i	1g]
1D	1A	[1d	1f
=34	=34	=34	=34
1G	1B-y	2d]	1.b-y
.	.	2e	.
[1F	[1c	[1f	.
.	.	.	4a
.	.	.	4g
=35	=35	=35	=35
1F]	1c]	1f]	1a
[1B-y	[1d	[1f	[1b-y
=36	=36	=36	=36
1B-]	1d]	0f_	1b-]
[1F	[1c	.	1a
=37	=37	=37	=37
1F]	1c]	1f]	0a
1F	1c	1f	.
=38	=38	=38	=38
1.G	1.B-y	1d	2.b-y
.	.	.	4a
.	.	2d	2g
2D	[2A	[2d	2f
=39	=39	=39	=39
0E-X	2A]	2d]	1g
.	4G	4c	.
.	4F	4B-y	.
.	1G	1c	1g
=40	=40	=40	=40
00D	00A	00d	00f
=41||	=41||	=41||	=41||
*M2/1	*M2/1	*M2/1	*M2/1
*met(C|)	*met(C|)	*met(C|)	*met(C|)
!!section: Kyrie II
!!!OMD: Kyrie II
0r	0r	1G	0r
.	.	1B-y	.
=42	=42	=42	=42
1r	1r	1c	0r
[1G	1G	2d	.
.	.	2e	.
=43	=43	=43	=43
1G]	1B-y	2d	0r
.	.	1g	.
1A	1c	.	.
.	.	2f#i	.
=44	=44	=44	=44
1.G	2.d	1g	0g
.	4c	.	.
.	2B-y	[1d	.
4F	4A	.	.
4E	4G	.	.
=45	=45	=45	=45
1D	1A	1d]	1f
1G	2.G	1d	1g
.	4A	.	.
=46	=46	=46	=46
0r	2B-y	0r	2d
.	2c	.	2e
.	2d	.	2f
.	2e	.	2g
=47	=47	=47	=47
0r	2f	0r	2a
.	2.e	.	2.g
.	4d	.	4f
.	[2d	.	4e
.	.	.	4d
=48	=48	=48	=48
1r	2d]	1r	1e
.	2c#i	.	.
2.G	1d	2.B-y	1d
4A	.	4c	.
=49	=49	=49	=49
2B-y	1.d	2d	0r
2c	.	2e	.
2d	.	2f	.
2c	2c	[2g	.
=50	=50	=50	=50
1B-y	1B-y	4g]	0r
.	.	4f	.
.	.	4e	.
.	.	4d	.
1A	1A	1e	.
=51	=51	=51	=51
1D	0r	2d	1f
.	.	2.B-y	.
2r	.	.	2g
.	.	4c	.
2G	.	4d	2b-y
.	.	4e	.
=52	=52	=52	=52
2F	1d	2f	2a
1G	.	2B-y	1b-y
.	[1d	1G	.
4F	.	.	4a
4E	.	.	4g
=53	=53	=53	=53
2D	2d]	1A	2f
2.F	2.c	.	2.a
.	.	1c	.
4G	4B-y	.	4g
2E	4A	.	[2g
.	4G	.	.
=54	=54	=54	=54
1D	1A	0d	2g]
.	.	.	2f#i
2G	2G	.	1g
2B-y	2d	.	.
=55	=55	=55	=55
2A	2c	2r	2a
1B-y	1d	1f	2f
.	.	.	2g
4A	4c	2f	[2b-y
4G	4B-y	.	.
=56	=56	=56	=56
1F	1c	1f	2b-]
.	.	.	2a
2G	2B-y	2d	2b-y
2F	2c	2f	2a
=57	=57	=57	=57
2G	2B-y	2d	2g
2F	1c	2.f	1a
1A	.	.	.
.	.	4e	.
.	4B-y	4d	4g
.	4A	4c	4f
=58	=58	=58	=58
1G	1B-y	1d	1g
2D	2A	[1d	2f
2G	2B-y	.	2g
=59	=59	=59	=59
2F	2A	0d_	2a
1G	1B-y	.	1d
4F	4A	.	[2g
4E	4G	.	.
=60	=60	=60	=60
1D	1A	1d]	2g]
.	.	.	2f#i
[1Gl	[1Gl	[1dl	[1gl
=61	=61	=61	=61
00G]	00G]	00d]	00g]
==	==	==	==
*-	*-	*-	*-
!!!system-decoration: [*]
!!!RDF**kern: i = editorial accidental
!!!RDF**kern: l = terminal long
!!!ENC: Benjamin Ory
!!!END: 2024/12/28
!!!EED: Benjamin Ory
!!!EEV: 2025/01/22
!!!YEC: Copyright 2025 Benjamin Ory, All Rights Reserved
!!!ONB: Translated from MusicXML on 2025/01/22